X:1
T:title
M:4/4
Q:120
L:1/8
R:Reel
K:C
 _b2 _B2 _B2 _g _d |  _g' _d'2 _e2f'2 ^G |  _Fd'E3 ^B2 _D |  _d'3 ^b'2 ^e'3 |  _g'3 _D4d' | B2 _b _f _b2f'2 |  ^A2 _c'2 _c'4 |  ^C2c3 _a3 | 